svg/emoji_u1f9f6.svg

<svg width="128" height="128" viewBox="0 0 128 128" fill="none" xmlns="http://www.w3.org/2000/svg">
<path d="M63.13 108.19C91.6334 108.19 114.74 85.0834 114.74 56.58C114.74 28.0766 91.6334 4.96997 63.13 4.96997C34.6266 4.96997 11.52 28.0766 11.52 56.58C11.52 85.0834 34.6266 108.19 63.13 108.19Z" fill="#883A0E" style="fill:#883A0E;fill:color(display-p3 0.5333 0.2271 0.0549);fill-opacity:1;"/>
<path d="M53.3399 36.9099C53.2199 36.9099 53.0899 36.8799 52.9699 36.8699C50.8599 36.7499 50.2999 34.3499 50.6499 33.0299C52.8099 24.7599 51.7399 17.4099 48.1999 8.01986C47.4699 6.09986 50.3799 5.59986 51.6499 6.10986C52.8699 6.59986 53.9999 8.35986 54.4899 9.68986C57.4199 17.6199 58.2399 25.9499 55.8199 34.8599C55.4999 36.0599 54.5399 36.9399 53.3399 36.9099Z" fill="#ECA740" style="fill:#ECA740;fill:color(display-p3 0.9255 0.6557 0.2510);fill-opacity:1;"/>
<path d="M59.8 44.58C59.58 44.58 59.36 44.54 59.14 44.47C57.83 44.07 57.09 42.69 57.49 41.39C60.27 32.19 62.3 17.15 55.86 5.84997C55.18 4.65997 56.91 3.87997 58.27 4.00997C61.39 4.28997 63.21 8.95997 63.81 11.04C66.63 20.75 65.71 33.73 62.22 42.82C61.82 43.89 60.88 44.61 59.8 44.58Z" fill="#ECA740" style="fill:#ECA740;fill:color(display-p3 0.9255 0.6557 0.2510);fill-opacity:1;"/>
<path d="M66.46 51.8301C64.76 51.3401 64.44 49.1001 64.83 47.7901C72.57 21.8501 64.78 5.91007 64.72 5.74007C64.24 4.46007 68.44 2.71007 70.51 7.90007C70.81 8.65007 77.72 26.0001 69.93 49.9001C69.56 51.0001 68.24 52.3501 66.46 51.8301Z" fill="#ECA740" style="fill:#ECA740;fill:color(display-p3 0.9255 0.6557 0.2510);fill-opacity:1;"/>
<path d="M22.42 90.5001C21.7 89.6501 20.8 88.3001 21.94 87.5401C23.83 86.2701 30.32 84.2101 35.51 77.1701C36.32 76.0701 37.69 75.5601 38.88 76.2401C40.07 76.9101 40.6 78.5001 39.81 79.6101C33.51 88.4901 25.84 90.8901 25.53 91.0701C25.15 91.2901 23.14 91.3501 22.42 90.5001Z" fill="#ECA740" style="fill:#ECA740;fill:color(display-p3 0.9255 0.6557 0.2510);fill-opacity:1;"/>
<path d="M26.5899 94.1901C26.0699 92.8901 29.3899 92.3201 29.3899 92.3201C30.8599 91.7601 36.8899 90.6301 41.6999 83.0601C42.4299 81.9101 43.8899 81.4601 45.0699 82.1401C46.2599 82.8201 46.6699 84.3301 45.9899 85.5101C42.7599 91.1701 36.4499 95.4101 32.1299 96.4401C29.8199 96.9901 27.0999 95.4601 26.5899 94.1901Z" fill="#ECA740" style="fill:#ECA740;fill:color(display-p3 0.9255 0.6557 0.2510);fill-opacity:1;"/>
<path d="M34.67 101.6C33.14 100.79 32.69 99.31 33.66 98.99C39.39 97.14 45.65 92.36 48.69 87.86C49.45 86.73 50.99 86.43 52.12 87.2C53.25 87.96 53.54 89.5 52.78 90.63C49.21 96.01 45.57 98.73 39.63 101.31C38.5 101.8 36.1 102.36 34.67 101.6Z" fill="#ECA740" style="fill:#ECA740;fill:color(display-p3 0.9255 0.6557 0.2510);fill-opacity:1;"/>
<path d="M41.99 103.81C45.74 102.09 51.99 98.5299 55.61 92.4599C56.31 91.2899 57.83 90.8999 59 91.5999C60.17 92.2999 60.56 93.8199 59.86 94.9899C56.94 99.8899 52.88 103.76 46.69 105.94C43.68 107.01 40.75 104.39 41.99 103.81Z" fill="#ECA740" style="fill:#ECA740;fill:color(display-p3 0.9255 0.6557 0.2510);fill-opacity:1;"/>
<path d="M18.96 83.3601C10.63 73.5401 9.15996 60.7201 11.3 48.0201C11.79 45.1001 12.86 43.2801 13.92 43.2901C15.29 43.3101 16.61 48.0101 16.21 50.5601C14.41 62.0301 17.73 73.2801 24.91 82.0301C25.34 82.5601 24.73 84.3501 23.2 85.0201C21.67 85.6801 19.96 84.5401 18.96 83.3601Z" fill="#ECA740" style="fill:#ECA740;fill:color(display-p3 0.9255 0.6557 0.2510);fill-opacity:1;"/>
<path d="M25.3099 77.8299C21.5399 74.2899 18.4199 63.2099 18.4099 57.9399C18.4099 56.5699 18.4199 54.5999 19.7899 54.5999C19.7899 54.5999 22.8499 55.0699 23.3599 57.9299C24.0899 62.0499 26.3699 71.5099 30.1699 76.2999C31.0199 77.3699 27.8799 80.2399 25.3099 77.8299Z" fill="#ECA740" style="fill:#ECA740;fill:color(display-p3 0.9255 0.6557 0.2510);fill-opacity:1;"/>
<path d="M66.43 110.1C62.08 110.32 55.4 109.41 53.21 106.41C52.4 105.31 53.85 104.27 55.17 104.62C63.13 106.77 68.64 108.02 78.81 103.08C80.87 102.08 83.15 103.13 82.13 104.57C80.7 106.6 74.25 109.75 66.43 110.1Z" fill="#D88C1B" style="fill:#D88C1B;fill:color(display-p3 0.8471 0.5506 0.1059);fill-opacity:1;"/>
<path d="M58.2699 101.13C57.4999 99.9999 59.7899 98.1099 61.1499 98.3299C63.2999 98.6699 64.7899 99.0499 66.2899 99.1099C67.8299 99.1699 69.7199 98.6099 70.2999 98.6099C71.6699 98.6099 74.9499 99.9599 74.1099 101.04C71.5099 104.38 60.6999 104.68 58.2699 101.13Z" fill="#D88C1B" style="fill:#D88C1B;fill:color(display-p3 0.8471 0.5506 0.1059);fill-opacity:1;"/>
<path d="M86.4799 44.57C85.2299 44.72 84.0499 43.89 83.7799 42.64C83.4899 41.31 84.3399 39.99 85.6699 39.7C91.5599 38.42 99.2399 34.03 103.72 26.98C104.79 25.29 108.12 28.46 106.33 31.14C100.95 39.23 93.8999 42.98 86.7199 44.53C86.6399 44.54 86.5599 44.56 86.4799 44.57Z" fill="#ECA740" style="fill:#ECA740;fill:color(display-p3 0.9255 0.6557 0.2510);fill-opacity:1;"/>
<path d="M84.77 53.5199C83.44 53.6799 82.22 52.7499 82.03 51.4099C81.84 50.0599 82.77 48.7999 84.13 48.6099C93.82 47.2199 104.41 39.8299 107.97 32.4299C108.56 31.1999 112.65 34.8299 109.73 38.8799C104.52 46.0899 94.3 52.1499 84.84 53.4999C84.81 53.5199 84.79 53.5199 84.77 53.5199Z" fill="#ECA740" style="fill:#ECA740;fill:color(display-p3 0.9255 0.6557 0.2510);fill-opacity:1;"/>
<path d="M85.66 61.3799C84.87 61.4699 84.09 61.5399 83.34 61.5699C81.98 61.6299 80.82 60.5699 80.76 59.1999C80.7 57.8299 81.76 56.6699 83.13 56.6299C93.04 56.2099 107.45 49.5499 111.92 41.2599C112.57 40.0599 116.71 43.4599 113.19 47.9199C110.55 51.2699 106.39 54.0099 101.63 56.3999C96.47 58.9999 90.67 60.7899 85.66 61.3799Z" fill="#ECA740" style="fill:#ECA740;fill:color(display-p3 0.9255 0.6557 0.2510);fill-opacity:1;"/>
<path d="M93.49 68.14C92.79 68.22 92.14 68.26 91.56 68.24C90.19 68.21 89.11 67.07 89.15 65.71C89.18 64.35 90.31 63.26 91.68 63.3C96.25 63.4 108.59 58.6 113.83 50.37C114.57 49.22 117.3 53.52 114.35 56.88C107.97 64.15 99.52 67.43 93.49 68.14Z" fill="#ECA740" style="fill:#ECA740;fill:color(display-p3 0.9255 0.6557 0.2510);fill-opacity:1;"/>
<path d="M74.42 58.31C74.12 58.31 73.82 58.26 73.52 58.14C72.25 57.65 71.67 56.23 72.11 54.94C77.2 40.01 78.98 22.41 72.58 6.2C72.08 4.93 76.96 4.76 78.25 8.55C84.33 26.49 82.5 41.01 76.72 56.73C76.36 57.72 75.41 58.31 74.42 58.31Z" fill="#ECA740" style="fill:#ECA740;fill:color(display-p3 0.9255 0.6557 0.2510);fill-opacity:1;"/>
<path d="M93.0799 29.8101C91.8099 28.2201 86.9499 24.3801 85.0699 23.7201C83.7799 23.2601 83.3299 18.8201 84.6999 18.8201C89.1999 18.8101 95.3699 23.2601 97.2099 27.5201C98.5699 30.6701 95.6799 33.0601 93.0799 29.8101Z" fill="#D88C1B" style="fill:#D88C1B;fill:color(display-p3 0.8471 0.5506 0.1059);fill-opacity:1;"/>
<path d="M99.36 25.8101C94.93 19.8901 91.37 16.0001 83.17 13.1201C81.28 12.4501 79.49 10.1301 80.64 9.39007C82.77 8.01007 86.74 9.69007 87.85 10.2201C92.19 12.2901 96.2099 14.5101 99.5899 18.4401C101.5 20.6601 103.74 25.2901 102.83 26.3001C101.45 27.8301 99.85 26.4601 99.36 25.8101Z" fill="#D88C1B" style="fill:#D88C1B;fill:color(display-p3 0.8471 0.5506 0.1059);fill-opacity:1;"/>
<path d="M100.6 74.9499C99.88 73.7899 103.89 72.1199 104.25 67.8799C104.37 66.5199 108.51 64.9199 108.6 66.2799C108.94 71.5799 107.07 73.5099 104.99 75.0199C102.72 76.6499 101.06 75.7099 100.6 74.9499Z" fill="#D88C1B" style="fill:#D88C1B;fill:color(display-p3 0.8471 0.5506 0.1059);fill-opacity:1;"/>
<path d="M108.84 78.5699C106.99 78.1499 107.73 76.1599 108.59 75.0999C111.87 71.0799 112.17 68.9299 111.83 64.5499C111.66 62.3899 113.43 60.4599 114.27 61.5299C115.36 62.9299 116.18 67.0199 115.4 70.3799C113.56 78.3699 109.42 78.6999 108.84 78.5699Z" fill="#D88C1B" style="fill:#D88C1B;fill:color(display-p3 0.8471 0.5506 0.1059);fill-opacity:1;"/>
<path d="M90.09 32.14C90.39 32.53 90.68 32.95 90.8 33.42C90.93 33.9 90.87 34.45 90.55 34.82C90.33 35.07 90.03 35.22 89.73 35.36C89.16 35.63 88.59 35.9 87.97 36.01C87.35 36.12 86.68 36.05 86.17 35.69C85.53 35.23 85.27 34.41 85.1 33.65C84.81 32.41 84.63 31.15 84.54 29.88C84.52 29.58 84.51 29.25 84.65 28.98C85.5 27.38 89.51 31.41 90.09 32.14Z" fill="#D88C1B" style="fill:#D88C1B;fill:color(display-p3 0.8471 0.5506 0.1059);fill-opacity:1;"/>
<path d="M93.08 98.1199C87.2 97.0899 81.3 94.7899 75.53 92.1699C74.2 91.5299 72.92 90.8599 71.64 90.1799C69.52 91.3799 67.24 92.3499 64.86 93.0699C71.17 96.5999 76.41 98.5099 80.25 99.6499C86.82 101.61 89.51 101.25 90.07 101.17C92.23 100.84 94.42 98.3899 93.08 98.1199Z" fill="#ECA740" style="fill:#ECA740;fill:color(display-p3 0.9255 0.6557 0.2510);fill-opacity:1;"/>
<path d="M19.2499 36.2899C18.5999 35.0899 17.6299 32.1099 17.6299 32.1099C15.9099 31.8999 14.4999 34.1199 15.1299 37.8899C15.4999 40.0599 25.2899 64.7299 54.2299 86.1799C58.0299 88.9999 61.5799 91.2499 64.8499 93.0799C64.8499 93.0799 67.1499 94.5999 70.2899 92.9799C72.9499 91.6099 71.6299 90.1799 71.6299 90.1799C48.2799 77.8799 32.2899 60.2399 19.2499 36.2899Z" fill="#F0C862" style="fill:#F0C862;fill:color(display-p3 0.9412 0.7853 0.3843);fill-opacity:1;"/>
<path d="M99.6499 92.69C92.5799 90.43 85.7199 87.73 79.1599 84.48C77.8299 85.88 76.3699 87.15 74.7999 88.29C76.1899 89.07 77.5699 89.82 78.9399 90.55C83.2499 92.85 100.49 100.35 99.6499 92.69Z" fill="#ECA740" style="fill:#ECA740;fill:color(display-p3 0.9255 0.6557 0.2510);fill-opacity:1;"/>
<path d="M79.1499 84.4798C55.7499 72.8898 35.6099 54.7298 22.8899 24.0698C19.5399 24.8098 19.8899 28.7398 20.3699 30.0198C31.7399 60.2698 54.7699 77.0598 74.7899 88.2898C74.7899 88.2898 77.9499 90.0298 80.0399 87.3598C81.2899 85.7498 79.1499 84.4798 79.1499 84.4798Z" fill="#F0C862" style="fill:#F0C862;fill:color(display-p3 0.9412 0.7853 0.3843);fill-opacity:1;"/>
<path d="M104.68 86.2397C97.27 84.1297 90.36 81.1997 83.95 77.7397C83.13 79.3297 82.17 80.8397 81.09 82.2397C86.21 84.8397 91.62 87.0398 97.3 88.6898C104.48 90.7598 106.03 86.4697 104.68 86.2397Z" fill="#ECA740" style="fill:#ECA740;fill:color(display-p3 0.9255 0.6557 0.2510);fill-opacity:1;"/>
<path d="M29.0399 17.8298C28.2199 16.0998 24.7599 18.7298 25.3599 21.4598C29.0899 35.0398 46.3199 65.5998 81.0899 82.2398C81.0899 82.2398 83.8699 83.4598 84.9299 81.1398C85.9899 78.8098 83.9599 77.7398 83.9599 77.7398C47.4299 58.3098 33.5599 30.4798 29.0399 17.8298Z" fill="#F0C862" style="fill:#F0C862;fill:color(display-p3 0.9412 0.7853 0.3843);fill-opacity:1;"/>
<path d="M109.63 79.9898C101.27 76.9098 93.7999 73.5798 87.0199 69.8298C86.9699 70.2198 86.9099 70.6098 86.8199 70.9698C86.4699 72.4798 85.9999 73.9298 85.4399 75.3198C91.3499 78.3498 97.7099 80.9398 104.57 83.0898C110.05 84.6198 110.91 80.4798 109.63 79.9898Z" fill="#ECA740" style="fill:#ECA740;fill:color(display-p3 0.9255 0.6557 0.2510);fill-opacity:1;"/>
<path d="M87.0199 69.8299C62.2999 56.2399 49.8099 40.7099 36.0399 13.8999C34.3599 11.1999 30.2699 13.6699 31.8599 16.5399C43.9999 42.8699 56.9599 59.2099 85.4399 75.3299C85.4399 75.3299 87.6199 76.1799 88.4599 73.6399C88.9899 72.0399 88.4899 70.6299 87.0199 69.8299Z" fill="#F0C862" style="fill:#F0C862;fill:color(display-p3 0.9412 0.7853 0.3843);fill-opacity:1;"/>
<path d="M70.52 124C67.75 124 64.94 123.93 62.13 123.77C44.8 122.81 23.16 116.85 16.62 106C14.57 102.61 8.34 92.2801 21.05 71.3801C28.18 59.6601 45.31 34.6201 40.62 10.7001C40.62 10.7001 39.97 8.40007 42.02 7.53007C45.05 6.25007 45.54 8.85007 45.54 8.85007C51.53 36.7601 33.63 62.1601 26.14 74.4701C16.43 90.4401 18.97 98.3501 21.72 102.91C24.9 108.17 38.37 116.48 62.46 117.81C92.74 119.48 111.27 111.91 113.17 109.2C113.24 108.18 112.58 106.98 101.22 106.74C98.07 106.67 98.36 102.07 99.94 101.89C104.56 101.35 113.25 101.35 117.23 104.23C119.24 105.69 120.08 107.84 119.29 110.34C116.92 117.83 95.83 124 70.52 124Z" fill="#FFE380" style="fill:#FFE380;fill:color(display-p3 1.0000 0.8904 0.5020);fill-opacity:1;"/>
</svg>

<?xml version="1.0" encoding="utf-8"?>
<!-- Generator: Adobe Illustrator 25.2.3, SVG Export Plug-In . SVG Version: 6.00 Build 0)  -->
<svg version="1.1" id="Layer_3" xmlns="http://www.w3.org/2000/svg" xmlns:xlink="http://www.w3.org/1999/xlink" x="0px" y="0px"
	 viewBox="0 0 128 128" style="enable-background:new 0 0 128 128;" xml:space="preserve">
<g>
	<circle style="fill:#880E4F;" cx="63.13" cy="56.58" r="51.61"/>
	<g>
		<path style="fill:#EC407A;" d="M53.34,36.91c-0.12,0-0.25-0.03-0.37-0.04c-2.11-0.12-2.67-2.52-2.32-3.84
			c2.16-8.27,1.09-15.62-2.45-25.01c-0.73-1.92,2.18-2.42,3.45-1.91C52.87,6.6,54,8.36,54.49,9.69c2.93,7.93,3.75,16.26,1.33,25.17
			C55.5,36.06,54.54,36.94,53.34,36.91z"/>
	</g>
	<g>
		<path style="fill:#EC407A;" d="M59.8,44.58c-0.22,0-0.44-0.04-0.66-0.11c-1.31-0.4-2.05-1.78-1.65-3.08
			c2.78-9.2,4.81-24.24-1.63-35.54c-0.68-1.19,1.05-1.97,2.41-1.84c3.12,0.28,4.94,4.95,5.54,7.03c2.82,9.71,1.9,22.69-1.59,31.78
			C61.82,43.89,60.88,44.61,59.8,44.58z"/>
	</g>
	<g>
		<path style="fill:#EC407A;" d="M66.46,51.83c-1.7-0.49-2.02-2.73-1.63-4.04c7.74-25.94-0.05-41.88-0.11-42.05
			c-0.48-1.28,3.72-3.03,5.79,2.16c0.3,0.75,7.21,18.1-0.58,42C69.56,51,68.24,52.35,66.46,51.83z"/>
	</g>
	<g>
		<path style="fill:#EC407A;" d="M22.42,90.5c-0.72-0.85-1.62-2.2-0.48-2.96c1.89-1.27,8.38-3.33,13.57-10.37
			c0.81-1.1,2.18-1.61,3.37-0.93c1.19,0.67,1.72,2.26,0.93,3.37c-6.3,8.88-13.97,11.28-14.28,11.46
			C25.15,91.29,23.14,91.35,22.42,90.5z"/>
	</g>
	<g>
		<path style="fill:#EC407A;" d="M26.59,94.19c-0.52-1.3,2.8-1.87,2.8-1.87c1.47-0.56,7.5-1.69,12.31-9.26
			c0.73-1.15,2.19-1.6,3.37-0.92c1.19,0.68,1.6,2.19,0.92,3.37c-3.23,5.66-9.54,9.9-13.86,10.93C29.82,96.99,27.1,95.46,26.59,94.19
			z"/>
	</g>
	<g>
		<path style="fill:#EC407A;" d="M34.67,101.6c-1.53-0.81-1.98-2.29-1.01-2.61c5.73-1.85,11.99-6.63,15.03-11.13
			c0.76-1.13,2.3-1.43,3.43-0.66c1.13,0.76,1.42,2.3,0.66,3.43c-3.57,5.38-7.21,8.1-13.15,10.68C38.5,101.8,36.1,102.36,34.67,101.6
			z"/>
	</g>
	<g>
		<path style="fill:#EC407A;" d="M41.99,103.81c3.75-1.72,10-5.28,13.62-11.35c0.7-1.17,2.22-1.56,3.39-0.86
			c1.17,0.7,1.56,2.22,0.86,3.39c-2.92,4.9-6.98,8.77-13.17,10.95C43.68,107.01,40.75,104.39,41.99,103.81z"/>
	</g>
	<g>
		<path style="fill:#EC407A;" d="M18.96,83.36c-8.33-9.82-9.8-22.64-7.66-35.34c0.49-2.92,1.56-4.74,2.62-4.73
			c1.37,0.02,2.69,4.72,2.29,7.27c-1.8,11.47,1.52,22.72,8.7,31.47c0.43,0.53-0.18,2.32-1.71,2.99
			C21.67,85.68,19.96,84.54,18.96,83.36z"/>
	</g>
	<g>
		<path style="fill:#EC407A;" d="M25.31,77.83c-3.77-3.54-6.89-14.62-6.9-19.89c0-1.37,0.01-3.34,1.38-3.34c0,0,3.06,0.47,3.57,3.33
			c0.73,4.12,3.01,13.58,6.81,18.37C31.02,77.37,27.88,80.24,25.31,77.83z"/>
	</g>
	<g>
		<path style="fill:#D81B60;" d="M66.43,110.1c-4.35,0.22-11.03-0.69-13.22-3.69c-0.81-1.1,0.64-2.14,1.96-1.79
			c7.96,2.15,13.47,3.4,23.64-1.54c2.06-1,4.34,0.05,3.32,1.49C80.7,106.6,74.25,109.75,66.43,110.1z"/>
	</g>
	<g>
		<path style="fill:#D81B60;" d="M58.27,101.13c-0.77-1.13,1.52-3.02,2.88-2.8c2.15,0.34,3.64,0.72,5.14,0.78
			c1.54,0.06,3.43-0.5,4.01-0.5c1.37,0,4.65,1.35,3.81,2.43C71.51,104.38,60.7,104.68,58.27,101.13z"/>
	</g>
	<g>
		<path style="fill:#EC407A;" d="M86.48,44.57c-1.25,0.15-2.43-0.68-2.7-1.93c-0.29-1.33,0.56-2.65,1.89-2.94
			c5.89-1.28,13.57-5.67,18.05-12.72c1.07-1.69,4.4,1.48,2.61,4.16c-5.38,8.09-12.43,11.84-19.61,13.39
			C86.64,44.54,86.56,44.56,86.48,44.57z"/>
	</g>
	<g>
		<path style="fill:#EC407A;" d="M84.77,53.52c-1.33,0.16-2.55-0.77-2.74-2.11c-0.19-1.35,0.74-2.61,2.1-2.8
			c9.69-1.39,20.28-8.78,23.84-16.18c0.59-1.23,4.68,2.4,1.76,6.45c-5.21,7.21-15.43,13.27-24.89,14.62
			C84.81,53.52,84.79,53.52,84.77,53.52z"/>
	</g>
	<g>
		<path style="fill:#EC407A;" d="M85.66,61.38c-0.79,0.09-1.57,0.16-2.32,0.19c-1.36,0.06-2.52-1-2.58-2.37
			c-0.06-1.37,1-2.53,2.37-2.57c9.91-0.42,24.32-7.08,28.79-15.37c0.65-1.2,4.79,2.2,1.27,6.66c-2.64,3.35-6.8,6.09-11.56,8.48
			C96.47,59,90.67,60.79,85.66,61.38z"/>
	</g>
	<g>
		<path style="fill:#EC407A;" d="M93.49,68.14c-0.7,0.08-1.35,0.12-1.93,0.1c-1.37-0.03-2.45-1.17-2.41-2.53
			c0.03-1.36,1.16-2.45,2.53-2.41c4.57,0.1,16.91-4.7,22.15-12.93c0.74-1.15,3.47,3.15,0.52,6.51
			C107.97,64.15,99.52,67.43,93.49,68.14z"/>
	</g>
	<g>
		<path style="fill:#EC407A;" d="M74.42,58.31c-0.3,0-0.6-0.05-0.9-0.17c-1.27-0.49-1.85-1.91-1.41-3.2
			c5.09-14.93,6.87-32.53,0.47-48.74c-0.5-1.27,4.38-1.44,5.67,2.35c6.08,17.94,4.25,32.46-1.53,48.18
			C76.36,57.72,75.41,58.31,74.42,58.31z"/>
	</g>
	<g>
		<path style="fill:#D81B60;" d="M93.08,29.81c-1.27-1.59-6.13-5.43-8.01-6.09c-1.29-0.46-1.74-4.9-0.37-4.9
			c4.5-0.01,10.67,4.44,12.51,8.7C98.57,30.67,95.68,33.06,93.08,29.81z"/>
	</g>
	<g>
		<path style="fill:#D81B60;" d="M99.36,25.81c-4.43-5.92-7.99-9.81-16.19-12.69c-1.89-0.67-3.68-2.99-2.53-3.73
			c2.13-1.38,6.1,0.3,7.21,0.83c4.34,2.07,8.36,4.29,11.74,8.22c1.91,2.22,4.15,6.85,3.24,7.86
			C101.45,27.83,99.85,26.46,99.36,25.81z"/>
	</g>
	<g>
		<path style="fill:#D81B60;" d="M100.6,74.95c-0.72-1.16,3.29-2.83,3.65-7.07c0.12-1.36,4.26-2.96,4.35-1.6
			c0.34,5.3-1.53,7.23-3.61,8.74C102.72,76.65,101.06,75.71,100.6,74.95z"/>
	</g>
	<g>
		<path style="fill:#D81B60;" d="M108.84,78.57c-1.85-0.42-1.11-2.41-0.25-3.47c3.28-4.02,3.58-6.17,3.24-10.55
			c-0.17-2.16,1.6-4.09,2.44-3.02c1.09,1.4,1.91,5.49,1.13,8.85C113.56,78.37,109.42,78.7,108.84,78.57z"/>
	</g>
	<path style="fill:#D81B60;" d="M90.09,32.14c0.3,0.39,0.59,0.81,0.71,1.28c0.13,0.48,0.07,1.03-0.25,1.4
		c-0.22,0.25-0.52,0.4-0.82,0.54c-0.57,0.27-1.14,0.54-1.76,0.65c-0.62,0.11-1.29,0.04-1.8-0.32c-0.64-0.46-0.9-1.28-1.07-2.04
		c-0.29-1.24-0.47-2.5-0.56-3.77c-0.02-0.3-0.03-0.63,0.11-0.9C85.5,27.38,89.51,31.41,90.09,32.14z"/>
	<g>
		<path style="fill:#EC407A;" d="M93.08,98.12c-5.88-1.03-11.78-3.33-17.55-5.95c-1.33-0.64-2.61-1.31-3.89-1.99
			c-2.12,1.2-4.4,2.17-6.78,2.89c6.31,3.53,11.55,5.44,15.39,6.58c6.57,1.96,9.26,1.6,9.82,1.52
			C92.23,100.84,94.42,98.39,93.08,98.12z"/>
		<path style="fill:#F06292;" d="M19.25,36.29c-0.65-1.2-1.62-4.18-1.62-4.18c-1.72-0.21-3.13,2.01-2.5,5.78
			c0.37,2.17,10.16,26.84,39.1,48.29c3.8,2.82,7.35,5.07,10.62,6.9c0,0,2.3,1.52,5.44-0.1c2.66-1.37,1.34-2.8,1.34-2.8
			C48.28,77.88,32.29,60.24,19.25,36.29z"/>
		<path style="fill:#EC407A;" d="M99.65,92.69c-7.07-2.26-13.93-4.96-20.49-8.21c-1.33,1.4-2.79,2.67-4.36,3.81
			c1.39,0.78,2.77,1.53,4.14,2.26C83.25,92.85,100.49,100.35,99.65,92.69z"/>
		<path style="fill:#F06292;" d="M79.15,84.48c-23.4-11.59-43.54-29.75-56.26-60.41c-3.35,0.74-3,4.67-2.52,5.95
			c11.37,30.25,34.4,47.04,54.42,58.27c0,0,3.16,1.74,5.25-0.93C81.29,85.75,79.15,84.48,79.15,84.48z"/>
		<path style="fill:#EC407A;" d="M104.68,86.24c-7.41-2.11-14.32-5.04-20.73-8.5c-0.82,1.59-1.78,3.1-2.86,4.5
			c5.12,2.6,10.53,4.8,16.21,6.45C104.48,90.76,106.03,86.47,104.68,86.24z"/>
		<path style="fill:#F06292;" d="M29.04,17.83c-0.82-1.73-4.28,0.9-3.68,3.63c3.73,13.58,20.96,44.14,55.73,60.78
			c0,0,2.78,1.22,3.84-1.1c1.06-2.33-0.97-3.4-0.97-3.4C47.43,58.31,33.56,30.48,29.04,17.83z"/>
		<path style="fill:#EC407A;" d="M109.63,79.99c-8.36-3.08-15.83-6.41-22.61-10.16c-0.05,0.39-0.11,0.78-0.2,1.14
			c-0.35,1.51-0.82,2.96-1.38,4.35c5.91,3.03,12.27,5.62,19.13,7.77C110.05,84.62,110.91,80.48,109.63,79.99z"/>
		<path style="fill:#F06292;" d="M87.02,69.83C62.3,56.24,49.81,40.71,36.04,13.9c-1.68-2.7-5.77-0.23-4.18,2.64
			C44,42.87,56.96,59.21,85.44,75.33c0,0,2.18,0.85,3.02-1.69C88.99,72.04,88.49,70.63,87.02,69.83z"/>
	</g>
	<path style="fill:#FF80AB;" d="M70.52,124c-2.77,0-5.58-0.07-8.39-0.23c-17.33-0.96-38.97-6.92-45.51-17.77
		c-2.05-3.39-8.28-13.72,4.43-34.62c7.13-11.72,24.26-36.76,19.57-60.68c0,0-0.65-2.3,1.4-3.17c3.03-1.28,3.52,1.32,3.52,1.32
		c5.99,27.91-11.91,53.31-19.4,65.62c-9.71,15.97-7.17,23.88-4.42,28.44c3.18,5.26,16.65,13.57,40.74,14.9
		c30.28,1.67,48.81-5.9,50.71-8.61c0.07-1.02-0.59-2.22-11.95-2.46c-3.15-0.07-2.86-4.67-1.28-4.85c4.62-0.54,13.31-0.54,17.29,2.34
		c2.01,1.46,2.85,3.61,2.06,6.11C116.92,117.83,95.83,124,70.52,124z M113.25,109.1L113.25,109.1L113.25,109.1z"/>
</g>
</svg>
